assets/icons/html.svg

<?xml version="1.0" encoding="iso-8859-1"?>
<!-- Generator: Adobe Illustrator 19.0.0, SVG Export Plug-In . SVG Version: 6.00 Build 0)  -->
<svg version="1.1" id="Capa_1" xmlns="http://www.w3.org/2000/svg" xmlns:xlink="http://www.w3.org/1999/xlink" x="0px" y="0px"
	 viewBox="0 0 512 512" style="enable-background:new 0 0 512 512;" xml:space="preserve">
<g>
	<g>
		<path d="M32,0l40.8,460.8L256,512l183.136-51.168L480,0H32z M391.52,150.688H256h-79.232l5.12,57.888H256h130.4l-15.392,173.568
			L256,414.24l-0.064,0.032l-114.944-32.128l-8.064-90.784h56.32l4.16,47.104l62.496,17.024l0.096-0.064l62.56-17.024l6.528-73.312
			H256H130.624l-15.168-170.88H256h140.512L391.52,150.688z"/>
	</g>
</g>
<g>
</g>
<g>
</g>
<g>
</g>
<g>
</g>
<g>
</g>
<g>
</g>
<g>
</g>
<g>
</g>
<g>
</g>
<g>
</g>
<g>
</g>
<g>
</g>
<g>
</g>
<g>
</g>
<g>
</g>
</svg>

<svg width="512" height="512" viewBox="0 0 512 512" fill="none" xmlns="http://www.w3.org/2000/svg">
<path d="M32 0L72.8 460.8L256 512L439.136 460.832L480 0H32ZM391.52 150.688H256H176.768L181.888 208.576H256H386.4L371.008 382.144L256 414.24L255.936 414.272L140.992 382.144L132.928 291.36H189.248L193.408 338.464L255.904 355.488L256 355.424L318.56 338.4L325.088 265.088H256H130.624L115.456 94.208H256H396.512L391.52 150.688Z" fill="white"/>
</svg>
